X:512
T:B512-  When the Stormy Winds do Blow
Q:1/4=120
L:1/4
M:C
K:C
c|GcBc|e2d3/2e/|c3/2B/AB|G2z2|\
GcBc|e2d3/2e/|c3/2B/AB|G3=B|\
A3/2G/FA|B3/2A/GB|cA(d/e/f/) d/|{c/}B2(G/A/B/) G/|\
c2(A/B/c/) A/|d2ce|fd(e/f/g/) e/|c3|]

